polaris-icons/icons/newicons/RichTextMinor.svg

<svg width="20" height="20" viewBox="0 0 20 20" fill="none" xmlns="http://www.w3.org/2000/svg">
<path fill-rule="evenodd" clip-rule="evenodd" d="M5 3C3.89543 3 3 3.89543 3 5V8C3 9.10457 3.89543 10 5 10H8C9.10457 10 10 9.10457 10 8V5C10 3.89543 9.10457 3 8 3H5ZM8 4.5H5C4.72386 4.5 4.5 4.72386 4.5 5V8C4.5 8.27614 4.72386 8.5 5 8.5H8C8.27614 8.5 8.5 8.27614 8.5 8V5C8.5 4.72386 8.27614 4.5 8 4.5Z" fill="black"/>
<path d="M3 15.75C3 15.3358 3.33579 15 3.75 15H12.25C12.6642 15 13 15.3358 13 15.75C13 16.1642 12.6642 16.5 12.25 16.5H3.75C3.33579 16.5 3 16.1642 3 15.75Z" fill="black"/>
<path d="M3.75 11.5C3.33579 11.5 3 11.8358 3 12.25C3 12.6642 3.33579 13 3.75 13H16.25C16.6642 13 17 12.6642 17 12.25C17 11.8358 16.6642 11.5 16.25 11.5H3.75Z" fill="black"/>
<path d="M11.25 8.75C11.25 8.33579 11.5858 8 12 8H16.25C16.6642 8 17 8.33579 17 8.75C17 9.16421 16.6642 9.5 16.25 9.5H12C11.5858 9.5 11.25 9.16421 11.25 8.75Z" fill="black"/>
<path d="M12 4.5C11.5858 4.5 11.25 4.83579 11.25 5.25C11.25 5.66421 11.5858 6 12 6H16.25C16.6642 6 17 5.66421 17 5.25C17 4.83579 16.6642 4.5 16.25 4.5H12Z" fill="black"/>
</svg>

<svg viewBox="0 0 20 20" fill="none" xmlns="http://www.w3.org/2000/svg"><path fill-rule="evenodd" clip-rule="evenodd" d="M5 3a2 2 0 0 0-2 2v3a2 2 0 0 0 2 2h3a2 2 0 0 0 2-2v-3a2 2 0 0 0-2-2h-3Zm3 1.5h-3a.5.5 0 0 0-.5.5v3a.5.5 0 0 0 .5.5h3a.5.5 0 0 0 .5-.5v-3a.5.5 0 0 0-.5-.5Z" fill="#5C5F62"/><path d="M3 15.75a.75.75 0 0 1 .75-.75h8.5a.75.75 0 0 1 0 1.5h-8.5a.75.75 0 0 1-.75-.75Z" fill="#5C5F62"/><path d="M3.75 11.5a.75.75 0 0 0 0 1.5h12.5a.75.75 0 0 0 0-1.5h-12.5Z" fill="#5C5F62"/><path d="M11.25 8.75a.75.75 0 0 1 .75-.75h4.25a.75.75 0 0 1 0 1.5h-4.25a.75.75 0 0 1-.75-.75Z" fill="#5C5F62"/><path d="M12 4.5a.75.75 0 0 0 0 1.5h4.25a.75.75 0 0 0 0-1.5h-4.25Z" fill="#5C5F62"/></svg>
